X:1
T:Title
%%score 1 2 3
L:1/8
Q:1/4=88
M:4/4
K:Bb
V:1 treble nm="Grand Piano, Soprano"
V:2 treble nm="French Horn, Staff-1"
V:3 bass nm="Choir Pad, Are You Ready?"
V:1
 DEFF FFFB | A>G FE DE F2 | DDEE EEEG | FEDE FG F2 | FFBB BBBB | cdeB GE c2 | BGFF Bcdd | %7
w: By~Charles~Millard~Fillmore * * * * * * *|||||||
 Bdcc BA B2 | [DB][FA] [EG]<[EG] [EG][FA] [GB]2 | [EG]2 [DF]6 | %10
w: |||
 [DB][Fd] [=Ec]<[Ec] [Ec][Ed] [Ec]2 | [=EB]2 [FA]6 | [FA][FA][FB][FB] [Fc][Fc] [Fd]2 | %13
w: |||
 [FB][FB][Fc][Fc] [Fd][_Ad] [Ge]2 | [GB][EG] [DF]<[DB] [DB][Ec] [DB]2 | [CA]2 [DB]6- | %16
w: |||
 [DB]2 z2 z4 |] %17
w: |
V:2
 [B,D][CE][DF]B, [DF]B,[DF][DB] | [FA]>[EG] [DF][CE] [B,D][CE][DF][K:bass]B, | %2
 [B,D]F,[CE]F, [CE]F,[K:treble][CE][EG] | [DF][CE][B,D][CE] [DF][EG][DF]B, | %4
 [DF]B,[DB]F [DB]F[DB]F | [Ec][Fd][Ge]B GE[Ec]G | [GB][EG][DF]B, [DB][Ec][Fd]F | %7
 [DB]F[Ec]F [DB][CA] [DB]2 | z8 | z8 | z8 | z8 | z8 | z8 | z8 | z8 | z8 |] %17
V:3
 z2 [D,,B,,]2 z2 [D,,B,,]2 | z2 [D,,B,,]2 z2 [D,,B,,]2 | z2 F,,2 z2 F,,2 | %3
 z2 [B,,,B,,]2 z2 [B,,,B,,]2 | z2 [B,,,B,,]2 z2 [B,,,B,,]2 | z2 [E,,E,]2 z2 [E,,E,]2 | %6
 z2 [F,,F,]2 z2 [F,,F,]2 | z2 [F,,F,]2 z2 [B,,,B,,]2 | %8
 [B,,B,][D,B,] [E,B,]<[E,B,] [E,B,][E,B,] [E,B,]2 | [E,B,]2 [B,,B,]6 | %10
 [B,,B,][B,,B,] [C,B,]<[C,B,] [C,B,][C,B,] [C,B,]2 | [C,C]2 [F,C]6 | %12
 [E,C][E,C][D,B,][D,B,] [C,A,][C,A,] [B,,B,]2 | [D,B,][D,B,][F,A,][F,A,] B,B, [E,B,]2 | %14
 [E,B,][E,B,] [F,B,]<[F,B,] [F,B,]F, F,2 | F,2 [B,,F,]6- | [B,,F,]2 z2 z4 |] %17

